X: 29873
T: O'Keefe's
R: polka
M: 2/4
K: Amajor
|:EA FA/F/|EA FA/F/|EA BA/B/|cB B2|
EA FA/F/|EA FA/F/|EA BA/B/|1 cA A2:|2 cA Ac/d/||
|:ec ac|ec ac|ec aA|cB Bc/d/|
ec ac|ec ac|Ac BA/B/|1 cA Ac/d/:|2 cA A2||

